X:281
%%etbk:tnset id:315,pos:1,rep:3x,ant:
%%etbk:wsite http://www.thesession.org/tunes/display/6422
%%etbk:pldat 2014-05-21T19:20,2014-05-19T19:19,2014-05-14T16:24,2014-04-06T15:47,2014-02-04T18:05,2013-11-21T18:22,2013-11-19T16:03,2013-04-30T15:55
T: Dawn Chorus, The
Z: Piano Box Version by Martin Fleischmann
H: Created 2013-02-19 /  Last Modified 2013-02-19
M: 6/8
L: 1/8
R: jig
K: Gmaj
"G"!4!B!3!B!4!B !4!BAB | !5!d!4!B!4!B !4!B!2!G!1!E | "D"!1!D!2!F!3!A ABA | !1!D!2!F!3!A !3!A!2!G!1!E |
"G"!1!D2!4!B BAB | !5!d!4!BB !4!B!3!A!2!G | "D"!3!A!4!B!5!d !4!BAB | "em"!2!F!1!EE !1!E2!1!D |
"G"!2!GGG !4!BAB | !5!d2d !4!B!2!G!1!E | "D"!1!D!2!F!3!A ABA | DFA !3!A!2!G!1!E |
"G"!1!D2!4!B BAB | !5!d!4!BB BAG | "D"!3!A!4!B!5!d !4!BAB | "em"!2!F!1!EE E2!2!f||
|:"em"!3!g2!1!e eag | "bm"!2!f/g/af !1!d!1!e!2!f | "em"!3!g!2!g!3!g !4!aga | !5!b!3!g!1!e e2!2!f |
"G"!3!gag {a}gf!1!e | !2!ded !2!d!1!B!2!d | !5!g2g !1!B!2!B!1!B |1 !4!d!2!B!1!G G2!2!f:|2 "D"!4!d2!1!D !1!D!2!G!3!A||


